humanity-icon-theme/Humanity/categories/22/applications-graphics.svg

<?xml version="1.0" encoding="UTF-8" standalone="no"?>
<!-- Created with Inkscape (http://www.inkscape.org/) -->

<svg
   xmlns:svg="http://www.w3.org/2000/svg"
   xmlns="http://www.w3.org/2000/svg"
   xmlns:xlink="http://www.w3.org/1999/xlink"
   version="1.0"
   width="22"
   height="22"
   id="svg11300">
  <defs
     id="defs3">
    <linearGradient
       id="linearGradient6468">
      <stop
         id="stop6470"
         style="stop-color:#cd8033;stop-opacity:1"
         offset="0" />
      <stop
         id="stop6472"
         style="stop-color:#bb5e12;stop-opacity:1"
         offset="1" />
    </linearGradient>
    <linearGradient
       id="linearGradient6951">
      <stop
         id="stop6953"
         style="stop-color:#6e3d09;stop-opacity:1"
         offset="0" />
      <stop
         id="stop6959"
         style="stop-color:#ea8113;stop-opacity:1"
         offset="0.24242425" />
      <stop
         id="stop6961"
         style="stop-color:#5c3307;stop-opacity:1"
         offset="0.62121212" />
      <stop
         id="stop6955"
         style="stop-color:#e07c12;stop-opacity:1"
         offset="1" />
    </linearGradient>
    <linearGradient
       id="linearGradient6963">
      <stop
         id="stop6965"
         style="stop-color:#696969;stop-opacity:1"
         offset="0" />
      <stop
         id="stop6967"
         style="stop-color:black;stop-opacity:1"
         offset="1" />
    </linearGradient>
    <linearGradient
       id="linearGradient6629">
      <stop
         id="stop6631"
         style="stop-color:#aeaeae;stop-opacity:1"
         offset="0" />
      <stop
         id="stop6633"
         style="stop-color:#c4c4c4;stop-opacity:0"
         offset="1" />
    </linearGradient>
    <linearGradient
       id="linearGradient6651">
      <stop
         id="stop6653"
         style="stop-color:#f2f2f2;stop-opacity:1"
         offset="0" />
      <stop
         id="stop6655"
         style="stop-color:#c3c3c3;stop-opacity:1"
         offset="1" />
    </linearGradient>
    <linearGradient
       id="linearGradient6835">
      <stop
         id="stop6837"
         style="stop-color:white;stop-opacity:1"
         offset="0" />
      <stop
         id="stop6839"
         style="stop-color:white;stop-opacity:0"
         offset="1" />
    </linearGradient>
    <linearGradient
       id="linearGradient4103">
      <stop
         id="stop4105"
         style="stop-color:#edd563;stop-opacity:1"
         offset="0" />
      <stop
         id="stop4107"
         style="stop-color:#e08223;stop-opacity:1"
         offset="1" />
    </linearGradient>
    <linearGradient
       id="linearGradient5113">
      <stop
         id="stop5115"
         style="stop-color:white;stop-opacity:1"
         offset="0" />
      <stop
         id="stop5117"
         style="stop-color:white;stop-opacity:0"
         offset="1" />
    </linearGradient>
    <radialGradient
       cx="15.415101"
       cy="35.356506"
       r="7.5791559"
       fx="15.415101"
       fy="35.356506"
       id="radialGradient6429"
       xlink:href="#linearGradient6963"
       gradientUnits="userSpaceOnUse"
       gradientTransform="matrix(0.472086,0,0,0.4751232,-3.0094493,1.0966311)" />
    <linearGradient
       x1="20.250818"
       y1="29.81082"
       x2="22.011618"
       y2="31.72422"
       id="linearGradient6432"
       xlink:href="#linearGradient6651"
       gradientUnits="userSpaceOnUse"
       gradientTransform="matrix(0.4925112,0,0,0.5272088,-2.7832076,-1.3189123)" />
    <linearGradient
       x1="28.058632"
       y1="18.867767"
       x2="33.436985"
       y2="23.742767"
       id="linearGradient6435"
       xlink:href="#linearGradient6951"
       gradientUnits="userSpaceOnUse"
       gradientTransform="matrix(0.492941,0,0,0.5186452,-2.7923794,-1.0285026)" />
    <linearGradient
       x1="48.25"
       y1="52"
       x2="48.25"
       y2="74.5"
       id="linearGradient6442"
       xlink:href="#linearGradient6835"
       gradientUnits="userSpaceOnUse"
       gradientTransform="matrix(0.2222274,0,0,0.2666668,3.7775379,-4.8666712)" />
    <linearGradient
       x1="60.168766"
       y1="40.119797"
       x2="60.440994"
       y2="43.869797"
       id="linearGradient6446"
       xlink:href="#linearGradient6651"
       gradientUnits="userSpaceOnUse"
       gradientTransform="matrix(0.4058776,0,0,0.3916624,-8.7895338,4.048906)" />
    <linearGradient
       x1="42.816425"
       y1="64.563896"
       x2="54.0648"
       y2="64.520432"
       id="linearGradient6452"
       xlink:href="#linearGradient4103"
       gradientUnits="userSpaceOnUse"
       gradientTransform="matrix(0.4429464,0,0,0.4135479,-7.2382707,-13.648516)" />
    <linearGradient
       x1="61.871845"
       y1="29.615223"
       x2="61.871845"
       y2="41.459263"
       id="linearGradient6455"
       xlink:href="#linearGradient6629"
       gradientUnits="userSpaceOnUse"
       gradientTransform="matrix(0.4751347,0,0,0.2900951,-13.276737,7.9728722)" />
    <linearGradient
       x1="53.168766"
       y1="24.244797"
       x2="69.690994"
       y2="24.244797"
       id="linearGradient6458"
       xlink:href="#linearGradient6651"
       gradientUnits="userSpaceOnUse"
       gradientTransform="matrix(0.5426759,0,0,0.3373739,-16.797586,6.3326907)" />
    <linearGradient
       x1="52.717937"
       y1="2.3161638"
       x2="67.465988"
       y2="2.3161638"
       id="linearGradient6461"
       xlink:href="#linearGradient4103"
       gradientUnits="userSpaceOnUse"
       gradientTransform="matrix(0.6546131,0,0,0.4343892,-23.336976,5.241903)" />
    <linearGradient
       x1="107.00001"
       y1="36"
       x2="114.99999"
       y2="36"
       id="linearGradient6463"
       xlink:href="#linearGradient6468"
       gradientUnits="userSpaceOnUse"
       gradientTransform="matrix(1.3157421,0,0,1.2395981,-130.04737,-39.125537)" />
    <radialGradient
       cx="12.994796"
       cy="11.209234"
       r="4.0000005"
       fx="12.994796"
       fy="11.209234"
       id="radialGradient6473"
       xlink:href="#linearGradient5113"
       gradientUnits="userSpaceOnUse"
       gradientTransform="matrix(1,0,0,1.6250001,0,-9.062501)" />
  </defs>
  <g
     id="g5555">
    <path
       d="m 8.8206763,11.621051 2.0042467,1.971211 C 14.367932,9.9293303 19.590931,1.1565554 19.590931,1.1565554 19.802653,0.52150061 19.054965,0.12139534 18.680785,0.54948272 c 0,0 -6.748405,7.31138858 -9.8601087,11.07156828 z"
       id="path8625"
       style="fill:url(#linearGradient6435);fill-opacity:1;fill-rule:nonzero;stroke:#673907;stroke-width:0.74303877;stroke-linecap:round;stroke-linejoin:miter;stroke-miterlimit:4;stroke-opacity:1;stroke-dasharray:none;stroke-dashoffset:0;marker:none;visibility:visible;display:inline;overflow:visible" />
    <path
       d="m 4.4134322,17.464017 1.2719645,1.161572 5.3541663,-4.940184 C 10.824083,12.861641 9.5908306,11.37441 8.6673536,11.37441 l -4.2539214,6.089607 z"
       id="path8627"
       style="fill:url(#linearGradient6432);fill-opacity:1;fill-rule:nonzero;stroke:#787a75;stroke-width:0.74882138;stroke-linecap:round;stroke-linejoin:miter;stroke-miterlimit:4;stroke-opacity:1;stroke-dasharray:none;stroke-dashoffset:0;marker:none;visibility:visible;display:inline;overflow:visible" />
    <path
       d="M 3.4947878e-6,20.976548 C 3.1350409,20.976548 5.5142602,21.362109 5.9647056,19.006558 6.3276768,17.108311 3.800266,16.198742 2.547825,17.893378 1.3413316,19.525846 3.4947878e-6,20.976548 3.4947878e-6,20.976548 z"
       id="path8629"
       style="fill:url(#radialGradient6429);fill-opacity:1;fill-rule:nonzero;stroke:none;stroke-width:0.69999999;marker:none;visibility:visible;display:inline;overflow:visible" />
    <path
       d="m 15.66276,2.5016028 c -2.320887,0.065293 -4.162584,0.7899737 -4.162584,1.663848 0,0.2077257 0,2.462803 0,2.6705287 0,0.9168515 2.027217,1.6638447 4.509469,1.6638447 2.48229,0 4.490179,-0.7469932 4.490179,-1.6638447 0,-0.2077257 0,-2.462803 0,-2.6705287 0,-0.9168537 -2.007889,-1.663848 -4.490179,-1.663848 -0.116378,0 -0.232757,-0.00321 -0.346885,0 z"
       id="path8641"
       style="fill:url(#linearGradient6461);fill-opacity:1;fill-rule:nonzero;stroke:url(#linearGradient6463);stroke-width:1.00035167;stroke-linecap:round;stroke-linejoin:miter;stroke-miterlimit:4;stroke-opacity:1;stroke-dasharray:none;stroke-dashoffset:0;marker:none;visibility:visible;display:inline;overflow:visible" />
    <path
       d="M 11.575367,20.262763 11.500102,9.3659328 12.738195,7.7237506 c 1.486927,-0.2981985 5.073731,-0.2981985 6.416787,0 l 1.313023,1.6421822 0.03189,11.1339652 -8.924532,-0.237135 z"
       id="path8645"
       style="fill:url(#linearGradient6458);fill-opacity:1;fill-rule:nonzero;stroke:#828282;stroke-width:1.00020409;stroke-linecap:round;stroke-linejoin:miter;stroke-miterlimit:4;stroke-opacity:1;stroke-dasharray:none;stroke-dashoffset:0;marker:none;visibility:visible;display:inline;overflow:visible" />
    <path
       d="m 11.921109,19.846154 c 0,0 1.385187,-3.846154 4.031641,-3.846154 2.730459,0 4.367612,4 4.367612,4 l -8.399253,-0.153846 z"
       id="path8647"
       style="fill:url(#linearGradient6455);fill-opacity:1;fill-rule:nonzero;stroke:none;stroke-width:1;marker:none;visibility:visible;display:inline;overflow:visible" />
    <path
       d="m 12,10.46898 0.06084,4.385587 C 13.085151,14.234249 18.531579,14.049626 19.980162,15 L 20,10.46898 c -0.861313,-0.5482934 -6.297438,-0.6978636 -8,0 z"
       id="path8649"
       style="fill:url(#linearGradient6452);fill-opacity:1;fill-rule:nonzero;stroke:none;stroke-width:1;marker:none;visibility:visible;display:inline;overflow:visible" />
    <rect
       width="10.995647"
       height="1.9956478"
       rx="0.48656639"
       ry="0.44909146"
       x="10.502176"
       y="19.502178"
       id="rect8653"
       style="fill:url(#linearGradient6446);fill-opacity:1;fill-rule:nonzero;stroke:#828282;stroke-width:1.00435174;stroke-linecap:round;stroke-linejoin:miter;stroke-miterlimit:4;stroke-opacity:1;stroke-dasharray:none;stroke-dashoffset:0;marker:none;visibility:visible;display:inline;overflow:visible" />
    <path
       d="M 12.002,9.7697246 C 13.252709,9.1663114 17.668292,9.3069138 20.085,9.77 L 18.892866,8.2469156 c -1.64167,-0.3426379 -3.814746,-0.4457914 -5.774342,0 L 12.002,9.7697246 z"
       id="path8655"
       style="fill:#f0f0f0;fill-opacity:1;fill-rule:nonzero;stroke:none;stroke-width:1;marker:none;visibility:visible;display:inline;overflow:visible" />
    <path
       d="M 12.709264,20.499568 12.500431,9.8591831 13.396472,8.6997454 c 1.024683,-0.2657522 4.189539,-0.2657522 5.115021,0 l 0.988075,1.1594377 -0.08174,10.6276259 -6.708561,0.01276 z"
       id="path8651"
       style="opacity:0.6;fill:none;stroke:url(#radialGradient6473);stroke-width:1.00086355;stroke-linecap:round;stroke-linejoin:miter;stroke-miterlimit:4;stroke-opacity:1;stroke-dasharray:none;stroke-dashoffset:0;marker:none;visibility:visible;display:inline;overflow:visible" />
    <path
       d="M 14,9.2666664 14,15 15,13.666667 14.888914,9 14,9.2666664 z"
       id="path8657"
       style="opacity:0.6;fill:url(#linearGradient6442);fill-opacity:1;fill-rule:nonzero;stroke:none;stroke-width:1;marker:none;visibility:visible;display:inline;overflow:visible" />
    <g
       transform="matrix(0.5339967,0,0,0.5863235,-2.8849899,-1.0838461)"
       id="g8659"
       style="opacity:0.57777782;stroke-width:2.19232106;stroke-miterlimit:4;stroke-dasharray:none">
      <path
         d="m 29.747356,8.8417702 0,3.2400348 c 0,0 1.386165,-0.08252 2.246684,-0.09616 l 0,-3.3149303 c -1.160303,0.025805 -2.246684,0.1710515 -2.246684,0.1710515 z"
         id="path8663"
         style="fill:#e6e7e6;fill-opacity:1;fill-rule:nonzero;stroke:none;stroke-width:2.19232106;marker:none;visibility:visible;display:inline;overflow:visible" />
      <path
         d="m 34.240516,8.7721984 0,3.2952776 c 0,0 1.260992,-0.0052 2.246892,0.01433 l 0,-3.337027 c -1.135348,-0.051535 -2.246892,0.02742 -2.246892,0.02742 z"
         id="path8665"
         style="opacity:0.44444448;fill:#e6e7e6;fill-opacity:1;fill-rule:nonzero;stroke:none;stroke-width:2.19232106;marker:none;visibility:visible;display:inline;overflow:visible" />
    </g>
  </g>
</svg>

<?xml version="1.0" encoding="UTF-8" standalone="no"?>
<!-- Created with Inkscape (http://www.inkscape.org/) -->
<svg id="svg11300" xmlns="http://www.w3.org/2000/svg" height="22" width="22" version="1.0" xmlns:xlink="http://www.w3.org/1999/xlink">
 <defs id="defs3">
  <linearGradient id="linearGradient6651">
   <stop id="stop6653" style="stop-color:#f2f2f2" offset="0"/>
   <stop id="stop6655" style="stop-color:#c3c3c3" offset="1"/>
  </linearGradient>
  <linearGradient id="linearGradient4103">
   <stop id="stop4105" style="stop-color:#edd563" offset="0"/>
   <stop id="stop4107" style="stop-color:#e08223" offset="1"/>
  </linearGradient>
  <radialGradient id="radialGradient6429" gradientUnits="userSpaceOnUse" cy="35.357" cx="15.415" gradientTransform="matrix(.47209 0 0 .47512 -3.0094 1.0966)" r="7.5792">
   <stop id="stop6965" style="stop-color:#696969" offset="0"/>
   <stop id="stop6967" offset="1"/>
  </radialGradient>
  <linearGradient id="linearGradient6432" y2="31.724" xlink:href="#linearGradient6651" gradientUnits="userSpaceOnUse" x2="22.012" gradientTransform="matrix(.49251 0 0 .52721 -2.7832 -1.3189)" y1="29.811" x1="20.251"/>
  <linearGradient id="linearGradient6435" y2="23.743" gradientUnits="userSpaceOnUse" x2="33.437" gradientTransform="matrix(.49294 0 0 .51865 -2.7924 -1.0285)" y1="18.868" x1="28.059">
   <stop id="stop6953" style="stop-color:#6e3d09" offset="0"/>
   <stop id="stop6959" style="stop-color:#ea8113" offset=".24242"/>
   <stop id="stop6961" style="stop-color:#5c3307" offset=".62121"/>
   <stop id="stop6955" style="stop-color:#e07c12" offset="1"/>
  </linearGradient>
  <linearGradient id="linearGradient6442" y2="74.5" gradientUnits="userSpaceOnUse" x2="48.25" gradientTransform="matrix(.22223 0 0 .26667 3.7775 -4.8667)" y1="52" x1="48.25">
   <stop id="stop6837" style="stop-color:#fff" offset="0"/>
   <stop id="stop6839" style="stop-color:#fff;stop-opacity:0" offset="1"/>
  </linearGradient>
  <linearGradient id="linearGradient6446" y2="43.87" xlink:href="#linearGradient6651" gradientUnits="userSpaceOnUse" x2="60.441" gradientTransform="matrix(.40588 0 0 .39166 -8.7895 4.0489)" y1="40.12" x1="60.169"/>
  <linearGradient id="linearGradient6452" y2="64.52" xlink:href="#linearGradient4103" gradientUnits="userSpaceOnUse" x2="54.065" gradientTransform="matrix(.44295 0 0 .41355 -7.2383 -13.649)" y1="64.564" x1="42.816"/>
  <linearGradient id="linearGradient6455" y2="41.459" gradientUnits="userSpaceOnUse" x2="61.872" gradientTransform="matrix(.47513 0 0 .29010 -13.277 7.9729)" y1="29.615" x1="61.872">
   <stop id="stop6631" style="stop-color:#aeaeae" offset="0"/>
   <stop id="stop6633" style="stop-color:#c4c4c4;stop-opacity:0" offset="1"/>
  </linearGradient>
  <linearGradient id="linearGradient6458" y2="24.245" xlink:href="#linearGradient6651" gradientUnits="userSpaceOnUse" x2="69.691" gradientTransform="matrix(.54268 0 0 .33737 -16.798 6.3327)" y1="24.245" x1="53.169"/>
  <linearGradient id="linearGradient6461" y2="2.3162" xlink:href="#linearGradient4103" gradientUnits="userSpaceOnUse" x2="67.466" gradientTransform="matrix(.65461 0 0 .43439 -23.337 5.2419)" y1="2.3162" x1="52.718"/>
  <linearGradient id="linearGradient6463" y2="36" gradientUnits="userSpaceOnUse" x2="115" gradientTransform="matrix(1.3157 0 0 1.2396 -130.05 -39.126)" y1="36" x1="107">
   <stop id="stop6470" style="stop-color:#cd8033" offset="0"/>
   <stop id="stop6472" style="stop-color:#bb5e12" offset="1"/>
  </linearGradient>
  <radialGradient id="radialGradient6473" gradientUnits="userSpaceOnUse" cy="11.209" cx="12.995" gradientTransform="matrix(1 0 0 1.625 0 -9.0625)" r="4">
   <stop id="stop5115" style="stop-color:#fff" offset="0"/>
   <stop id="stop5117" style="stop-color:#fff;stop-opacity:0" offset="1"/>
  </radialGradient>
 </defs>
 <g id="g5555">
  <path id="path8625" style="stroke:#673907;stroke-linecap:round;stroke-width:.74304;fill:url(#linearGradient6435)" d="m8.8207 11.621 2.0042 1.9712c3.543-3.6627 8.766-12.435 8.766-12.435 0.212-0.6355-0.536-1.0356-0.91-0.60752 0 0-6.7484 7.3114-9.8601 11.072z"/>
  <path id="path8627" style="stroke:#787a75;stroke-linecap:round;stroke-width:.74882;fill:url(#linearGradient6432)" d="m4.4134 17.464 1.272 1.1616 5.3542-4.9402c-0.216-0.824-1.4492-2.312-2.3726-2.312l-4.2539 6.0896z"/>
  <path id="path8629" style="fill:url(#radialGradient6429)" d="m0.0000034948 20.977c3.135 0 5.5143 0.385 5.9647-1.97 0.363-1.899-2.1644-2.808-3.4169-1.114-1.2065 1.633-2.5478 3.084-2.5478 3.084z"/>
  <path id="path8641" style="stroke:url(#linearGradient6463);stroke-linecap:round;stroke-width:1.0004;fill:url(#linearGradient6461)" d="m15.663 2.5016c-2.3209 0.065293-4.1626 0.78997-4.1626 1.6638v2.6705c0 0.91685 2.0272 1.6638 4.5095 1.6638s4.4902-0.74699 4.4902-1.6638v-2.6705c0-0.91685-2.0079-1.6638-4.4902-1.6638-0.11638 0-0.23276-0.00321-0.34688 0z"/>
  <path id="path8645" style="stroke:#828282;stroke-linecap:round;stroke-width:1.0002;fill:url(#linearGradient6458)" d="m11.575 20.263-0.075-10.897 1.238-1.6422c1.4869-0.2982 5.0737-0.2982 6.4168 0l1.313 1.6422 0.03189 11.134-8.9245-0.23714z"/>
  <path id="path8647" style="fill:url(#linearGradient6455)" d="m11.921 19.846s1.3852-3.8462 4.0316-3.8462c2.7305 0 4.3676 4 4.3676 4l-8.3993-0.15385z"/>
  <path id="path8649" style="fill:url(#linearGradient6452)" d="m12 10.469 0.06084 4.3856c1.024-0.621 6.471-0.805 7.919 0.145l0.02-4.531c-0.86131-0.54829-6.2974-0.69786-8 0z"/>
  <rect id="rect8653" style="stroke:#828282;stroke-linecap:round;stroke-width:1.0044;fill:url(#linearGradient6446)" rx=".48657" ry=".44909" height="1.9956" width="10.996" y="19.502" x="10.502"/>
  <path id="path8655" style="fill:#f0f0f0" d="m12.002 9.7697c1.251-0.6034 5.666-0.4628 8.083 0.0003l-1.192-1.5231c-1.6417-0.34264-3.8147-0.44579-5.7743 0l-1.117 1.5228z"/>
  <path id="path8651" style="opacity:.6;stroke:url(#radialGradient6473);stroke-linecap:round;stroke-width:1.0009;fill:none" d="m12.709 20.5-0.209-10.641 0.896-1.1593c1.0247-0.26575 4.1895-0.26575 5.115 0l0.98808 1.1594-0.08174 10.628-6.7086 0.01276z"/>
  <path id="path8657" style="opacity:.6;fill:url(#linearGradient6442)" d="m14 9.2667v5.7333l1-1.333-0.111-4.667-0.889 0.2667z"/>
  <g id="g8659" style="opacity:.57778;stroke-width:2.1923" transform="matrix(0.534 0 0 .58632 -2.885 -1.0838)">
   <path id="path8663" style="fill:#e6e7e6" d="m29.747 8.8418v3.24s1.3862-0.08252 2.2467-0.09616v-3.3149c-1.1603 0.025805-2.2467 0.17105-2.2467 0.17105z"/>
   <path id="path8665" style="opacity:.44444;fill:#e6e7e6" d="m34.241 8.7722v3.2953s1.261-0.0052 2.2469 0.01433v-3.337c-1.1353-0.051535-2.2469 0.02742-2.2469 0.02742z"/>
  </g>
 </g>
</svg>
